X: 1
T:Polka
R:Polka
M:2/4
O:France
K:G
g2f2 ed^cd|e2d2 B2cd|d2c2 A2AB\
|1c2e2 e2d2:|2c2F2G4|:\
d2d2B4|BABc d4|B2d2 cdcB\
|1 ABcA B2G2 :|2 ABcA G4||
